X: 305755
M: 2/4
L: 1/16
K: C
g3a gfeg | fedf edcB | ABAG A2a2 | gecd (ed)d2 |\
g3a gfeg | fedf edcB | ABAG ABcA | GFED EC"^D.C."C2 :|


